X: 9
T:Geese in the Bog
R:Jig
Z:Added by Alf Warnock
M:6/8
L:1/8
K:C
|:cEE GEE|cEE GAB|cEE GED|EAA A2B|
cEE GEE|cEE GAB|cBA GED|EAA A2B:|
|:cde ged|eaa ged|cde ged|eaa a2B|
cde ged|eaa ged|cBA GED|EAA A2B:|

